!!!OTL: A Busserl is a schnuckrig Ding (2-51), S. 138
!!!id: K1133
**kern
*clefG2
*k[b-]
*F:
{8c
=1
4a
8g
4f
8c
=2
4e
8d
4d}
=3
{8b-
=4
4b-
8a
4g
8f
=5
4.e}
4r
=6
{8g
=7
4g
8a
4b-
8cc
=8
4dd
8cc
4a}
=9
{8cc
=10
4cc
8b-
4g
8ee
=11
4ff
8a
4cc}
=12
{8a
=13
4g
8a
4b-
8cc
=14
4dd
8cc
4a}
=15
{8cc
=16
4cc
8b-
4g
8ee
=17
4.ff}
4r
==
*-
!!!minrhy: 8
!!!meters: 6/8 ]  ZZ[6
!!!cut: A Busserl is a schnuckrig Ding (2-51), S. 138
!!!reg: Luxemburg
!!!trd: KINTZELE, Guillaume: An der Ucht, Bd. 2, Luxemburg 1927
!!!rhy1: X  X_XX_X  X_XX_
!!!rhy2: X  X_XX_X  X_.0_
!!!key: K1133  08  F 6/8 ]  ZZ[6
!!!mod: HEPTATONIK IONISCH]  AMBITUS[11
!!!kad: -6-7353+1
!!!akz: 31-7-6_42-7_2463_52+15_2463_52+1_
!!!fot: 'a__b__c__d__cv_dv_
!!!for: 'a__aw_a__a__a__aw_
!!!fok: '^a_\__^a_V__^__Va_
!! PHRAS[AUFTAKTIG]
!!!fkt: Scherzlied
!!!bem: in der Quelle mit einer 2. Stimme versehen
!! KINTZELE
!! PR[42] 2K[2] 2G[8] 3K[6] 3G[0] 4A[3] 4Ü[0] 5A[2] 6K[0] 6G[3]
!! 7K[0] 7G[0] 8A[0] MEHR[0] SI[23] ABS[66] SR[9] SP[14]
!! ST[14] 2k[9] 2g[21] 3k[0] 3g[2] 4d[0] 4ü[2] 5d[0] 6k[0] 6g[2]
!! 7k[0] 7g[0] 8d[0] mehr[0] si[35] dm[-12] sr[30] sp[5]
!! 1F[9] 2F[33] 3F[42] 4F[6] LF[0] 2P[9] 3P[1] 4P[0] TRI[0] DF[6] AB[69]
!! TF[0] U3K[0] U3[1] U4[1] U4Ü[0] U5[21] U6K[0] U6[16] U7K[0] U7[7]
!! N1[18] N2K[0] N2[9] N3K[0] N3[18] N4[4] N4Ü[0] N5[3] N6K[0] N6[0]
!!!n7k: 0] N7[0] O1[0] O2K[0] O2[0] O3K[0] O3[0] HÖ[0
